docs/.gitbook/assets/icon-wrist-watch-16@dark.svg

<svg width="32" height="32" viewBox="0 0 16 16" fill="none" xmlns="http://www.w3.org/2000/svg">
<rect x="0" y="0" width="16" height="16" fill="#181c1f"/>
<path fill-rule="evenodd" clip-rule="evenodd" d="M6.75 2.5C6.61193 2.5 6.5 2.61193 6.5 2.75V3.01121C6.58234 3.00379 6.66573 3 6.75 3H9.25C9.33427 3 9.41766 3.00379 9.5 3.01121V2.75C9.5 2.61193 9.38807 2.5 9.25 2.5H6.75ZM11 3.62858V2.75C11 1.7835 10.2165 1 9.25 1H6.75C5.7835 1 5 1.7835 5 2.75V3.62858C4.38925 4.13298 4 4.89603 4 5.75V10.25C4 11.104 4.38925 11.867 5 12.3714V13.25C5 14.2165 5.7835 15 6.75 15H9.25C10.2165 15 11 14.2165 11 13.25V12.3714C11.6108 11.867 12 11.104 12 10.25V8.75H12.25C12.6642 8.75 13 8.41421 13 8C13 7.58579 12.6642 7.25 12.25 7.25H12V5.75C12 4.89603 11.6108 4.13298 11 3.62858ZM9.5 12.9888C9.41766 12.9962 9.33427 13 9.25 13H6.75C6.66573 13 6.58234 12.9962 6.5 12.9888V13.25C6.5 13.3881 6.61193 13.5 6.75 13.5H9.25C9.38807 13.5 9.5 13.3881 9.5 13.25V12.9888ZM6.75 4.5C6.05964 4.5 5.5 5.05964 5.5 5.75V10.25C5.5 10.9404 6.05964 11.5 6.75 11.5H9.25C9.94036 11.5 10.5 10.9404 10.5 10.25V5.75C10.5 5.05964 9.94036 4.5 9.25 4.5H6.75ZM8.78033 7.21967C9.07322 7.51256 9.07322 7.98744 8.78033 8.28033L8.53033 8.53033C8.23744 8.82322 7.76256 8.82322 7.46967 8.53033C7.17678 8.23744 7.17678 7.76256 7.46967 7.46967L7.71967 7.21967C8.01256 6.92678 8.48744 6.92678 8.78033 7.21967Z" fill="#fff"/>
</svg>

<svg xmlns="http://www.w3.org/2000/svg" width="32" height="32" fill="none" viewBox="0 0 16 16"><path fill="#181c1f" d="M0 0h16v16H0z"/><path fill="#fff" fill-rule="evenodd" d="M6.75 2.5a.25.25 0 0 0-.25.25v.261q.123-.01.25-.011h2.5q.127 0 .25.011V2.75a.25.25 0 0 0-.25-.25zM11 3.629V2.75A1.75 1.75 0 0 0 9.25 1h-2.5A1.75 1.75 0 0 0 5 2.75v.879c-.61.504-1 1.267-1 2.121v4.5c0 .854.39 1.617 1 2.121v.879c0 .966.784 1.75 1.75 1.75h2.5A1.75 1.75 0 0 0 11 13.25v-.879c.61-.504 1-1.267 1-2.121v-1.5h.25a.75.75 0 0 0 0-1.5H12v-1.5c0-.854-.39-1.617-1-2.121m-1.5 9.36a3 3 0 0 1-.25.011h-2.5q-.127 0-.25-.011v.261c0 .138.112.25.25.25h2.5a.25.25 0 0 0 .25-.25zM6.75 4.5c-.69 0-1.25.56-1.25 1.25v4.5c0 .69.56 1.25 1.25 1.25h2.5c.69 0 1.25-.56 1.25-1.25v-4.5c0-.69-.56-1.25-1.25-1.25zm2.03 2.72a.75.75 0 0 1 0 1.06l-.25.25a.75.75 0 0 1-1.06-1.06l.25-.25a.75.75 0 0 1 1.06 0" clip-rule="evenodd"/></svg>
